assets/img/icons/duotone-icons/Devices/Hard-drive.svg

<?xml version="1.0" encoding="UTF-8"?>
<svg width="24px" height="24px" viewBox="0 0 24 24" version="1.1" xmlns="http://www.w3.org/2000/svg" xmlns:xlink="http://www.w3.org/1999/xlink">
    <!-- Generator: Sketch 52.2 (67145) - http://www.bohemiancoding.com/sketch -->
    <title>Stockholm-icons / Devices / Hard-drive</title>
    <desc>Created with Sketch.</desc>
    <g id="Stockholm-icons-/-Devices-/-Hard-drive" stroke="none" stroke-width="1" fill="none" fill-rule="evenodd">
        <rect id="bound" x="0" y="0" width="24" height="24"></rect>
        <path d="M2,13 L22,13 L22,18 C22,19.1045695 21.1045695,20 20,20 L4,20 C2.8954305,20 2,19.1045695 2,18 L2,13 Z M18.5,18 C19.3284271,18 20,17.3284271 20,16.5 C20,15.6715729 19.3284271,15 18.5,15 C17.6715729,15 17,15.6715729 17,16.5 C17,17.3284271 17.6715729,18 18.5,18 Z M13.5,18 C14.3284271,18 15,17.3284271 15,16.5 C15,15.6715729 14.3284271,15 13.5,15 C12.6715729,15 12,15.6715729 12,16.5 C12,17.3284271 12.6715729,18 13.5,18 Z" id="Combined-Shape" fill="#335EEA"></path>
        <path d="M5.79268604,8 L18.207314,8 C18.5457897,8 18.8612922,8.17121884 19.0457576,8.45501165 L22,13 L2,13 L4.95424243,8.45501165 C5.13870775,8.17121884 5.45421032,8 5.79268604,8 Z" id="Rectangle" fill="#335EEA" opacity="0.3"></path>
    </g>
</svg>

<svg width="24" height="24" viewBox="0 0 24 24" xmlns="http://www.w3.org/2000/svg"><g fill="none" fill-rule="evenodd"><path d="M0 0h24v24H0z"/><path d="M2 13h20v5a2 2 0 01-2 2H4a2 2 0 01-2-2v-5zm16.5 5a1.5 1.5 0 100-3 1.5 1.5 0 000 3zm-5 0a1.5 1.5 0 100-3 1.5 1.5 0 000 3z" fill="#335EEA"/><path d="M5.793 8h12.414a1 1 0 01.839.455L22 13H2l2.954-4.545A1 1 0 015.793 8z" fill="#335EEA" opacity=".3"/></g></svg>
